icons/file-user-16.svg

<?xml version="1.0" encoding="UTF-8"?><svg id="icons" xmlns="http://www.w3.org/2000/svg" viewBox="0 0 16 16"><defs><style>.cls-1{fill:none;}.cls-2{fill:#231f20;}</style></defs><rect class="cls-1" width="16" height="16"/><path class="cls-2" d="M12,11h-2.79956c-.14954-.36652-.36005-.69684-.60577-1h3.40533v1Zm2-2v-1h-5.55054c.021,.16559,.05054,.3288,.05054,.5,0,.17102-.02039,.33618-.04498,.5h5.54498Zm0-3H7.59723c.24524,.30322,.45624,.63336,.60529,1h5.79749v-1Zm2-2.40039V14h-6.5v-1h5.5V5h-4V1H6v3.79749c-.31445-.12781-.65198-.20288-1-.24695V0h7.40039l3.59961,3.59961Zm-1,.09076l-2.68951-2.69037h-.31049v3h3v-.30963Zm-7,8.80963v2.5H1l.01001-2.5c0-1.07727,.67828-1.98883,1.63507-2.33972-.39655-.44263-.64508-1.02069-.64508-1.66028,0-1.37842,1.12158-2.5,2.5-2.5s2.48999,1.12158,2.48999,2.5c0,.63892-.24591,1.21643-.63947,1.65887,.95898,.34973,1.64948,1.26227,1.64948,2.34113ZM3,8.5c0,.82715,.67285,1.5,1.5,1.5s1.5-.67285,1.5-1.5-.67285-1.5-1.5-1.5-1.5,.67285-1.5,1.5Zm4,4c0-.82715-.67285-1.5-1.5-1.5H3.5c-.82715,0-1.5,.67285-1.5,1.5v1.5H7v-1.5Z"/></svg>

<svg xmlns="http://www.w3.org/2000/svg" viewBox="0 0 16 16"><path fill="none" d="M0 0h16v16H0z"/><path d="M12 11H9.2a3.98 3.98 0 0 0-.605-1H12v1zm2-2V8H8.45c.02.166.05.329.05.5 0 .171-.02.336-.045.5H14zm0-3H7.597c.245.303.456.633.606 1H14V6zm2-2.4V14H9.5v-1H15V5h-4V1H6v3.797a3.975 3.975 0 0 0-1-.246V0h7.4L16 3.6zm-1 .09L12.31 1H12v3h3v-.31zM8 12.5V15H1l.01-2.5c0-1.077.678-1.989 1.635-2.34A2.48 2.48 0 0 1 2 8.5C2 7.122 3.122 6 4.5 6s2.49 1.122 2.49 2.5c0 .639-.246 1.216-.64 1.659A2.496 2.496 0 0 1 8 12.5zm-5-4c0 .827.673 1.5 1.5 1.5S6 9.327 6 8.5 5.327 7 4.5 7 3 7.673 3 8.5zm4 4c0-.827-.673-1.5-1.5-1.5h-2c-.827 0-1.5.673-1.5 1.5V14h5v-1.5z" fill="#231f20"/></svg>
